src/assets/img/error.svg

<svg width="20" height="20" viewBox="0 0 20 20" fill="none" xmlns="http://www.w3.org/2000/svg">
<path fill-rule="evenodd" clip-rule="evenodd" d="M0 10C0 4.47715 4.47715 0 10 0C15.5228 0 20 4.47715 20 10C20 15.5228 15.5228 20 10 20C4.47715 20 0 15.5228 0 10ZM10 1.33333C5.21353 1.33333 1.33333 5.21353 1.33333 10C1.33333 14.7865 5.21353 18.6667 10 18.6667C14.7865 18.6667 18.6667 14.7865 18.6667 10C18.6667 5.21353 14.7865 1.33333 10 1.33333ZM9.05719 10L5.5286 6.4714L6.4714 5.5286L10 9.05719L13.5286 5.5286L14.4714 6.4714L10.9428 10L14.4714 13.5286L13.5286 14.4714L10 10.9428L6.4714 14.4714L5.5286 13.5286L9.05719 10Z" fill="#FF868E"/>
</svg>

<svg width="20" height="20" viewBox="0 0 20 20" fill="none" xmlns="http://www.w3.org/2000/svg"><path fill-rule="evenodd" clip-rule="evenodd" d="M0 10C0 4.477 4.477 0 10 0s10 4.477 10 10-4.477 10-10 10S0 15.523 0 10zm10-8.667a8.667 8.667 0 1 0 0 17.334 8.667 8.667 0 0 0 0-17.334zM9.057 10 5.53 6.471l.942-.942L10 9.057l3.529-3.528.942.942L10.943 10l3.528 3.529-.942.942L10 10.943 6.471 14.47l-.942-.942L9.057 10z" fill="#FF868E"/></svg>
